X:15
T:Her Long Black Hair
M:C
L:1/8
K:D
|:de|fedf ~e2 dB|A !turn!F3 ABde|fedf ~e2 de|fbba b2 ag|!
fedf ~e2 dB|A !turn! F3 AB d2|fedf edBA|~B2 BA B2:|!
|:Be|faab afef|dBAB !turn!d3 e|fbba b2 ag|fedf e2 de|!
faab afef|dBAB !turn!d3e|fedf edBA|~B2BA B2:|]

